X:1
T:Title
%%score { ( 1 2 ) | ( 3 4 ) }
L:1/8
M:6/8
K:Eb
V:1 treble nm="Grand Piano"
V:2 treble 
V:3 bass 
V:4 bass 
V:1
 z3 z z[Q:1/4=81] z/ F/ | G2 G G2 G | GA[B,GB] [GB][FA][EG] | [DF]2 [DF] [DF][CE][DF] | %4
[M:5/8] G-G- G3 |[M:1/8] z/ F/ |[M:3/4] G2 G [FB]2 [FB] | [Ge]2 [Ge]e d[Gc] | [FB]F B d2 c | %9
[M:5/8] [DB]-[DB]- [DB]3 |[M:1/8] [DB] |[M:3/4] [DA]2 [DB][FA] [EG][DF] | G2 c B2 G | G2 =B d2 G | %14
[M:5/8] [Ee]-[Ee]- [Ee]3 |[M:1/8] [CEG] |[M:3/4] [Ge]f ed ed | cd c B2 e | FG A G2 [DF] | E6 | %20
 e3 G3 | [Ec]3 [CF]3 | [DB]2 [DA] [DF]2 [DA] | c2 BG AB | c3 d3 |[M:15/16] e3 [=Af]3/2- [Af]3 | %26
[M:3/4] e2 d [Ac]2 [Ad] |[M:5/8] [Ge]-[Ge]- [Ge]3 |] %28
V:2
 z3 z2 E | x6 | x6 | x6 |[M:5/8] x5 |[M:1/8] E |[M:3/4] x6 | z2 z .G3 | x6 |[M:5/8] x5 |[M:1/8] x | %11
[M:3/4] x6 | x6 | x6 |[M:5/8] x5 |[M:1/8] x |[M:3/4] x6 | x6 | x6 | x6 | x6 | x6 | x6 | x6 | x6 | %25
[M:15/16] x15/2 |[M:3/4] x6 |[M:5/8] x5 |] %28
V:3
 z3 z2 G,/A,/ | [E,B,E]2 [E,B,E] [E,B,E]2 [E,B,E] | EFE, [E,B,]2 [E,B,] | %3
 [B,,B,]2 [B,,B,] [B,,B,]2 [B,,B,] |[M:5/8] [E,B,E]-[E,B,E]- [E,B,E]3 |[M:1/8] G,/ z/ | %6
[M:3/4] [E,B,E]2 [E,B,E] [D,B,]2 [D,B,] | [C,C]2 [C,C][C,C] [D,=B,][E,C] | %8
 [F,D]2 [F,B,D] [F,=A,F]2 [F,A,E] |[M:5/8] [B,,B,]-[B,,B,]- [B,,B,]3 |[M:1/8] [B,,B,] | %11
[M:3/4] [F,B,]2 [F,B,] [B,,B,]2 [B,,B,] | [E,B,E]2 [E,A,E] [E,G,E]2 [E,B,E] | %13
 [G,=B,F]2 [G,DF] [G,B,F]2 [G,B,F] |[M:5/8][K:bass] [C,G,]-[C,G,]- [C,G,]3 |[M:1/8] C, | %16
[M:3/4] z[K:treble] A [CG]F G[G,=B,F] | EF[K:bass] [A,E] [E,G,E]2 [G,B,E] | %18
 [CE]-[G,CE] [F,CE] [B,E]2 [B,,A,] | [E,G,]6 | [G,B,E]3 [E,B,E]3 | [A,,A,]3 [A,,A,]3 | %22
 [B,,F,]2 [B,,F,] [B,,B,]2 [B,,B,] | [E,G,E]2 [E,G,E][E,B,E] [F,B,D][K:treble][G,B,E] | %24
 [A,E]3 [G,=B,F]3 |[M:15/16] [CG]3[K:bass] [F,C]3/2- [F,C]3 | %26
[M:3/4][K:treble] [B,G]2 [B,F][K:bass] [B,,B,]2 [B,,B,] |[M:5/8] [E,B,]-[E,B,]- [E,B,]3 |] %28
V:4
 z3 z2 E, | x6 | .[E,B,]3 z3 | x6 |[M:5/8] x5 |[M:1/8] E,/-[E,A,]/ |[M:3/4] x6 | x6 | x6 | %9
[M:5/8] x5 |[M:1/8] x |[M:3/4] x6 | x6 | x6 |[M:5/8][K:bass] x5 |[M:1/8] x | %16
[M:3/4] C2[K:treble] z .[G,=B,]3 | A,2[K:bass] z2 z2 | .A,2 z2 z2 | x6 | x6 | x6 | x6 | %23
 x5[K:treble] x | x6 |[M:15/16] x3[K:bass] x9/2 |[M:3/4][K:treble] x3[K:bass] x3 |[M:5/8] x5 |] %28

